src/cmd/sc_framedialog.svg

<svg viewBox="0 0 16 16" xmlns="http://www.w3.org/2000/svg"><path d="m3 3v10h2v-1h-1v-8h8v3 4h1v-4-4zm4 9c-.5522847 0-1 .447723-1 1s.4477153 1 1 1 1-.447723 1-1-.4477153-1-1-1zm3 0c-.5522847 0-1 .447723-1 1s.4477153 1 1 1c.552285 0 1-.447723 1-1s-.447715-1-1-1zm3 0c-.552285 0-1 .447723-1 1s.447715 1 1 1 1-.447723 1-1-.447715-1-1-1z" fill="#232629"/><path d="m2 2v12h3v-1h-2v-10h10v8h1v-4-5z" fill="#e95420"/></svg>

<?xml version="1.0" encoding="UTF-8" standalone="no"?>
<svg
   xmlns:dc="http://purl.org/dc/elements/1.1/"
   xmlns:cc="http://creativecommons.org/ns#"
   xmlns:rdf="http://www.w3.org/1999/02/22-rdf-syntax-ns#"
   xmlns:svg="http://www.w3.org/2000/svg"
   xmlns="http://www.w3.org/2000/svg"
   xmlns:sodipodi="http://sodipodi.sourceforge.net/DTD/sodipodi-0.dtd"
   xmlns:inkscape="http://www.inkscape.org/namespaces/inkscape"
   viewBox="0 0 16 16"
   version="1.1"
   id="svg6"
   sodipodi:docname="sc_framedialog.svg"
   inkscape:version="0.92.4 (5da689c313, 2019-01-14)">
  <metadata
     id="metadata12">
    <rdf:RDF>
      <cc:Work
         rdf:about="">
        <dc:format>image/svg+xml</dc:format>
        <dc:type
           rdf:resource="http://purl.org/dc/dcmitype/StillImage" />
      </cc:Work>
    </rdf:RDF>
  </metadata>
  <defs
     id="defs10" />
  <sodipodi:namedview
     pagecolor="#ffffff"
     bordercolor="#666666"
     borderopacity="1"
     objecttolerance="10"
     gridtolerance="10"
     guidetolerance="10"
     inkscape:pageopacity="0"
     inkscape:pageshadow="2"
     inkscape:window-width="1920"
     inkscape:window-height="1011"
     id="namedview8"
     showgrid="true"
     inkscape:zoom="29.5"
     inkscape:cx="-2.9200628"
     inkscape:cy="5.116932"
     inkscape:window-x="0"
     inkscape:window-y="32"
     inkscape:window-maximized="1"
     inkscape:current-layer="svg6">
    <inkscape:grid
       type="xygrid"
       id="grid822" />
  </sodipodi:namedview>
  <path
     d="M 5,12 H 4 V 4 h 8 v 3 4 1 z m 8,-1 V 7 3 H 3 v 10 h 2 8 z"
     id="path2"
     inkscape:connector-curvature="0"
     style="fill:#232629"
     sodipodi:nodetypes="cccccccccccccccc" />
  <path
     d="M 5,13 H 3 V 3 h 10 v 8 2 z m 9,-2 V 7 2 H 2 v 12 h 3 9 z"
     id="path4"
     inkscape:connector-curvature="0"
     style="fill:#e95420"
     sodipodi:nodetypes="ccccccccccccccc" />
</svg>
